X:2
T:Mat ja Pat
C:(nukkeanimaatiosta)
K:F#
M:12/8
L:1/8
V:1
.c3 .A3 FGF x3 | x3 .c3 A6 | .c3 .A3 FGF x3 | x3 .c3 B6 | 
V:2 clef=bass
M:12/8
x9 E2D | .C3 x9 | x9 E2D | .C3 x9 |
V:1
A2c A2=A G3 ^A2 c | A2=A G3 G6 | x12 | A2=A G3 d2=d c3 :|]
V:2
x12 | x12 | D2F D2=D C3 ^D2F | x12 :|]

